X:4
T:The First Cornflake
C:Colin Cotter
M:6/8
K:D
D2 d d2 d|c2 c ecA|B c d2 d|c2 c ecA|D2 D d2 d|c2 c ecA|Bcd g2 g|cde a3 :|
|:f2 f afd|e2 e aec|Bdd Add|Bdd cde|f2 f afd|e2 e aec|Bdd Add|Adf E2 d :|
